SVG-Logos/Frameworks-Languages-IDEs/Process/prplx master/inferno.svg

<?xml version="1.0" encoding="UTF-8" standalone="no"?>
<!-- Uploaded to: SVG Repo, www.svgrepo.com, Generator: SVG Repo Mixer Tools -->
<svg width="800px" height="800px" viewBox="-5 0 266 266" version="1.1" xmlns="http://www.w3.org/2000/svg" xmlns:xlink="http://www.w3.org/1999/xlink" preserveAspectRatio="xMidYMid">
	<g>
		<path d="M84.1099,58.7344 L80.7749,60.9474 C53.2879,78.9254 38.8059,104.5064 38.4739,137.2624 C38.0479,179.1514 67.5649,215.5894 108.3939,224.9634 C161.0989,237.0644 213.2589,198.8574 217.4989,145.0454 C220.8519,102.4824 192.0729,64.2444 151.4659,51.0274 C145.3429,44.2004 139.7829,21.2554 149.4599,10.8044 C189.3669,19.6724 219.2859,40.0494 238.5759,72.8684 C280.7539,144.6274 242.8369,238.1664 162.7199,260.5084 C88.2979,281.2624 12.9969,232.2024 1.8669,155.7104 C-10.4841,84.3884 39.8749,20.9394 110.9259,10.2764 C94.3509,25.2674 85.4819,45.8544 84.1099,58.7344" fill="#494949">
</path>
		<path d="M179.5839,119.4594 C185.3219,108.7674 185.0619,97.5844 181.8039,86.2694 C181.0029,83.4864 179.3359,78.7124 178.2109,75.5914 C197.3939,89.7674 213.7759,123.8534 205.4489,157.7274 C197.7349,189.1124 167.6549,214.3914 136.6249,217.3144 C96.6659,221.0774 65.5959,197.1324 53.9009,168.0224 C41.4309,136.9874 51.4169,98.8174 72.8489,79.8144 C62.3619,100.9284 65.6079,117.6894 69.8929,123.9434 C74.6559,130.8964 82.2389,134.5014 89.6399,132.4424 C97.4209,130.2784 103.3889,123.3174 103.2539,114.4424 C103.1639,108.5164 102.1069,101.8334 99.7699,96.4944 C85.9029,64.8174 97.4619,36.2494 119.8289,16.5754 C126.3209,10.8644 133.8699,5.3844 143.4779,0.0004 C132.9199,14.9914 131.1259,33.2564 139.1489,50.2534 C143.8519,59.5154 149.8789,69.1884 155.1959,78.1244 C164.7529,94.1854 170.6139,110.6984 168.0759,129.8564 C168.0479,130.0684 175.6779,126.8994 179.5839,119.4594" fill="#FB3239">
</path>
	</g>
</svg>

<svg xmlns="http://www.w3.org/2000/svg" preserveAspectRatio="xMidYMid" viewBox="-5 0 266 266"><path fill="#494949" d="m84.11 58.734-3.335 2.213c-27.487 17.978-41.97 43.56-42.301 76.315-.426 41.89 29.09 78.327 69.92 87.701 52.705 12.101 104.865-26.106 109.105-79.918 3.353-42.563-25.426-80.8-66.033-94.018-6.123-6.827-11.683-29.772-2.006-40.223 39.907 8.868 69.826 29.245 89.116 62.064 42.178 71.76 4.26 165.298-75.856 187.64C88.298 281.262 12.997 232.202 1.867 155.71-10.484 84.388 39.875 20.94 110.926 10.276 94.35 25.267 85.482 45.854 84.11 58.734"/><path fill="#FB3239" d="M179.584 119.46c5.738-10.693 5.478-21.876 2.22-33.19-.801-2.784-2.468-7.558-3.593-10.679 19.183 14.176 35.565 48.262 27.238 82.136-7.714 31.385-37.794 56.664-68.824 59.587-39.96 3.763-71.03-20.182-82.724-49.292-12.47-31.035-2.484-69.205 18.948-88.208-10.487 21.114-7.241 37.875-2.956 44.13 4.763 6.952 12.346 10.557 19.747 8.498 7.78-2.164 13.749-9.125 13.614-18-.09-5.926-1.147-12.609-3.484-17.948-13.867-31.677-2.308-60.245 20.059-79.919 6.492-5.71 14.04-11.19 23.649-16.575-10.558 14.991-12.352 33.256-4.33 50.253 4.704 9.262 10.73 18.935 16.048 27.871 9.557 16.061 15.418 32.574 12.88 51.732-.028.212 7.602-2.957 11.508-10.397"/></svg>
